src/images/star_fun.svg

<svg width="168" height="168" viewBox="0 0 168 168" fill="none" xmlns="http://www.w3.org/2000/svg">
<path d="M141.04 57.0397L122.906 76.9391L146.887 89.1812L121.213 97.3256L135.881 119.916L109.58 114.152L110.96 141.04L91.0609 122.906L78.8188 146.887L70.6744 121.213L48.0861 135.88L53.8493 109.579L26.9604 110.96L45.0961 91.0602L21.1149 78.818L46.7866 70.6744L32.1196 48.0861L58.4208 53.8494L57.0396 26.9604L76.9399 45.0961L89.182 21.1149L97.3256 46.7867L119.916 32.1188L114.152 58.42L141.04 57.0397Z" fill="#FAD645"/>
<mask id="path-2-inside-1_12_161" fill="white">
<path d="M106.593 131.799L89.9153 116.6L79.6611 136.686L72.8367 115.175L53.9088 127.464L58.7355 105.435L36.2005 106.593L51.4001 89.9154L31.3142 79.6612L52.8252 72.8368L40.5358 53.9088L62.5652 58.7355L61.407 36.2006L78.0845 51.4001L88.3387 31.3143L95.1632 52.8253L114.091 40.5359L109.264 62.5652L131.799 61.4071L116.6 78.0846L136.686 88.3388L115.175 95.1632L127.464 114.091L105.435 109.264L106.593 131.799ZM89.7067 115.453L105.798 130.118L104.681 108.375L125.933 113.032L114.075 94.7709L134.829 88.1881L115.452 78.2958L130.117 62.2042L108.374 63.3216L113.031 42.0697L94.7699 53.9276L88.1871 33.1736L78.2948 52.5506L62.2032 37.8851L63.3206 59.6283L42.0687 54.9719L53.9266 73.2326L33.1726 79.8154L52.5496 89.7077L37.8841 105.799L59.6273 104.682L54.971 125.934L73.2316 114.076L79.8144 134.83L89.7067 115.453Z"/>
</mask>
<path d="M106.593 131.799L89.9153 116.6L79.6611 136.686L72.8367 115.175L53.9088 127.464L58.7355 105.435L36.2005 106.593L51.4001 89.9154L31.3142 79.6612L52.8252 72.8368L40.5358 53.9088L62.5652 58.7355L61.407 36.2006L78.0845 51.4001L88.3387 31.3143L95.1632 52.8253L114.091 40.5359L109.264 62.5652L131.799 61.4071L116.6 78.0846L136.686 88.3388L115.175 95.1632L127.464 114.091L105.435 109.264L106.593 131.799ZM89.7067 115.453L105.798 130.118L104.681 108.375L125.933 113.032L114.075 94.7709L134.829 88.1881L115.452 78.2958L130.117 62.2042L108.374 63.3216L113.031 42.0697L94.7699 53.9276L88.1871 33.1736L78.2948 52.5506L62.2032 37.8851L63.3206 59.6283L42.0687 54.9719L53.9266 73.2326L33.1726 79.8154L52.5496 89.7077L37.8841 105.799L59.6273 104.682L54.971 125.934L73.2316 114.076L79.8144 134.83L89.7067 115.453Z" fill="#FF7051"/>
<path d="M89.9153 116.6L91.2625 115.122L89.3256 113.356L88.134 115.69L89.9153 116.6ZM79.6611 136.686L77.7548 137.29L79.2277 141.933L81.4424 137.595L79.6611 136.686ZM72.8367 115.175L74.743 114.57L73.9492 112.068L71.7476 113.497L72.8367 115.175ZM53.9088 127.464L51.9551 127.036L50.9126 131.794L54.9979 129.142L53.9088 127.464ZM58.7355 105.435L60.6891 105.863L61.25 103.303L58.6328 103.437L58.7355 105.435ZM36.2005 106.593L34.7223 105.246L31.4467 108.84L36.3031 108.59L36.2005 106.593ZM51.4001 89.9154L52.8783 91.2626L54.6435 89.3257L52.3095 88.1341L51.4001 89.9154ZM31.3142 79.6612L30.7094 77.7548L26.0667 79.2278L30.4048 81.4425L31.3142 79.6612ZM52.8252 72.8368L53.43 74.7431L55.9322 73.9493L54.5027 71.7476L52.8252 72.8368ZM40.5358 53.9088L40.9638 51.9552L36.2059 50.9127L38.8583 54.998L40.5358 53.9088ZM62.5652 58.7355L62.1371 60.6892L64.697 61.2501L64.5625 58.6329L62.5652 58.7355ZM61.407 36.2006L62.7542 34.7224L59.1601 31.4467L59.4097 36.3032L61.407 36.2006ZM78.0845 51.4001L76.7373 52.8783L78.6742 54.6436L79.8658 52.3095L78.0845 51.4001ZM88.3387 31.3143L90.2451 30.7095L88.7722 26.0667L86.5574 30.4049L88.3387 31.3143ZM95.1632 52.8253L93.2568 53.4301L94.0506 55.9322L96.2523 54.5027L95.1632 52.8253ZM114.091 40.5359L116.045 40.9639L117.087 36.206L113.002 38.8584L114.091 40.5359ZM109.264 62.5652L107.311 62.1372L106.75 64.6971L109.367 64.5626L109.264 62.5652ZM131.799 61.4071L133.278 62.7543L136.553 59.1602L131.697 59.4097L131.799 61.4071ZM116.6 78.0846L115.122 76.7374L113.356 78.6743L115.69 79.8659L116.6 78.0846ZM136.686 88.3388L137.29 90.2452L141.933 88.7722L137.595 86.5575L136.686 88.3388ZM115.175 95.1632L114.57 93.2569L112.068 94.0507L113.497 96.2523L115.175 95.1632ZM127.464 114.091L127.036 116.045L131.794 117.087L129.141 113.002L127.464 114.091ZM105.435 109.264L105.863 107.311L103.303 106.75L103.437 109.367L105.435 109.264ZM105.798 130.118L104.451 131.597L108.045 134.872L107.796 130.016L105.798 130.118ZM104.681 108.375L105.109 106.422L102.549 105.861L102.684 108.478L104.681 108.375ZM125.933 113.032L125.505 114.985L130.263 116.028L127.61 111.942L125.933 113.032ZM114.075 94.7709L113.47 92.8645L110.968 93.6583L112.398 95.8601L114.075 94.7709ZM134.829 88.1881L135.434 90.0945L140.077 88.6218L135.738 86.4068L134.829 88.1881ZM115.452 78.2958L113.974 76.9486L112.208 78.8855L114.543 80.0771L115.452 78.2958ZM130.117 62.2042L131.596 63.5514L134.871 59.9573L130.015 60.2069L130.117 62.2042ZM108.374 63.3216L106.421 62.8935L105.86 65.4534L108.477 65.319L108.374 63.3216ZM113.031 42.0697L114.984 42.4977L116.027 37.7393L111.941 40.3923L113.031 42.0697ZM94.7699 53.9276L92.8635 54.5322L93.6573 57.0348L95.8591 55.6049L94.7699 53.9276ZM88.1871 33.1736L90.0935 32.5689L88.6208 27.9256L86.4058 32.2642L88.1871 33.1736ZM78.2948 52.5506L76.9476 54.0288L78.8846 55.794L80.0761 53.46L78.2948 52.5506ZM62.2032 37.8851L63.5504 36.4069L59.9563 33.1313L60.2059 37.9877L62.2032 37.8851ZM63.3206 59.6283L62.8925 61.582L65.4524 62.1429L65.318 59.5257L63.3206 59.6283ZM42.0687 54.9719L42.4967 53.0183L37.7383 51.9757L40.3913 56.0612L42.0687 54.9719ZM53.9266 73.2326L54.5313 75.139L57.0338 74.3452L55.6039 72.1434L53.9266 73.2326ZM33.1726 79.8154L32.5679 77.909L27.9246 79.3817L32.2632 81.5967L33.1726 79.8154ZM52.5496 89.7077L54.0278 91.0549L55.793 89.1179L53.459 87.9264L52.5496 89.7077ZM37.8841 105.799L36.4059 104.452L33.1303 108.046L37.9867 107.797L37.8841 105.799ZM59.6273 104.682L61.581 105.11L62.1419 102.55L59.5247 102.685L59.6273 104.682ZM54.971 125.934L53.0173 125.506L51.9747 130.264L56.0602 127.611L54.971 125.934ZM73.2316 114.076L75.138 113.471L74.3442 110.969L72.1424 112.399L73.2316 114.076ZM79.8144 134.83L77.908 135.435L79.3807 140.078L81.5957 135.739L79.8144 134.83ZM107.94 130.321L91.2625 115.122L88.5681 118.078L105.246 133.278L107.94 130.321ZM88.134 115.69L77.8798 135.776L81.4424 137.595L91.6966 117.509L88.134 115.69ZM81.5675 136.081L74.743 114.57L70.9303 115.779L77.7548 137.29L81.5675 136.081ZM71.7476 113.497L52.8197 125.787L54.9979 129.142L73.9258 116.852L71.7476 113.497ZM55.8624 127.892L60.6891 105.863L56.7818 105.007L51.9551 127.036L55.8624 127.892ZM58.6328 103.437L36.0978 104.596L36.3031 108.59L58.8381 107.432L58.6328 103.437ZM37.6787 107.94L52.8783 91.2626L49.9219 88.5682L34.7223 105.246L37.6787 107.94ZM52.3095 88.1341L32.2236 77.8799L30.4048 81.4425L50.4907 91.6967L52.3095 88.1341ZM31.919 81.5675L53.43 74.7431L52.2204 70.9304L30.7094 77.7548L31.919 81.5675ZM54.5027 71.7476L42.2132 52.8197L38.8583 54.998L51.1478 73.9259L54.5027 71.7476ZM40.1077 55.8625L62.1371 60.6892L62.9932 56.7819L40.9638 51.9552L40.1077 55.8625ZM64.5625 58.6329L63.4044 36.0979L59.4097 36.3032L60.5678 58.8382L64.5625 58.6329ZM60.0598 37.6788L76.7373 52.8783L79.4317 49.922L62.7542 34.7224L60.0598 37.6788ZM79.8658 52.3095L90.12 32.2237L86.5574 30.4049L76.3032 50.4908L79.8658 52.3095ZM86.4324 31.9191L93.2568 53.4301L97.0695 52.2205L90.2451 30.7095L86.4324 31.9191ZM96.2523 54.5027L115.18 42.2133L113.002 38.8584L94.074 51.1478L96.2523 54.5027ZM112.137 40.1078L107.311 62.1372L111.218 62.9933L116.045 40.9639L112.137 40.1078ZM109.367 64.5626L131.902 63.4045L131.697 59.4097L109.162 60.5679L109.367 64.5626ZM130.321 60.0599L115.122 76.7374L118.078 79.4318L133.278 62.7543L130.321 60.0599ZM115.69 79.8659L135.776 90.1201L137.595 86.5575L117.509 76.3033L115.69 79.8659ZM136.081 86.4324L114.57 93.2569L115.779 97.0696L137.29 90.2452L136.081 86.4324ZM113.497 96.2523L125.787 115.18L129.141 113.002L116.852 94.0741L113.497 96.2523ZM127.892 112.137L105.863 107.311L105.007 111.218L127.036 116.045L127.892 112.137ZM103.437 109.367L104.595 131.902L108.59 131.697L107.432 109.162L103.437 109.367ZM88.3595 116.931L104.451 131.597L107.145 128.64L91.0539 113.975L88.3595 116.931ZM107.796 130.016L106.678 108.273L102.684 108.478L103.801 130.221L107.796 130.016ZM104.253 110.329L125.505 114.985L126.361 111.078L105.109 106.422L104.253 110.329ZM127.61 111.942L115.752 93.6817L112.398 95.8601L124.255 114.121L127.61 111.942ZM114.68 96.6773L135.434 90.0945L134.224 86.2817L113.47 92.8645L114.68 96.6773ZM135.738 86.4068L116.361 76.5145L114.543 80.0771L133.92 89.9694L135.738 86.4068ZM116.93 79.643L131.596 63.5514L128.639 60.857L113.974 76.9486L116.93 79.643ZM130.015 60.2069L108.272 61.3242L108.477 65.319L130.22 64.2016L130.015 60.2069ZM110.328 63.7496L114.984 42.4977L111.077 41.6416L106.421 62.8935L110.328 63.7496ZM111.941 40.3923L93.6807 52.2502L95.8591 55.6049L114.12 43.7471L111.941 40.3923ZM96.6763 53.3229L90.0935 32.5689L86.2807 33.7783L92.8635 54.5322L96.6763 53.3229ZM86.4058 32.2642L76.5135 51.6412L80.0761 53.46L89.9684 34.083L86.4058 32.2642ZM79.642 51.0724L63.5504 36.4069L60.856 39.3633L76.9476 54.0288L79.642 51.0724ZM60.2059 37.9877L61.3232 59.731L65.318 59.5257L64.2006 37.7824L60.2059 37.9877ZM63.7486 57.6747L42.4967 53.0183L41.6406 56.9256L62.8925 61.582L63.7486 57.6747ZM40.3913 56.0612L52.2492 74.3218L55.6039 72.1434L43.7461 53.8827L40.3913 56.0612ZM53.3219 71.3262L32.5679 77.909L33.7773 81.7218L54.5313 75.139L53.3219 71.3262ZM32.2632 81.5967L51.6402 91.489L53.459 87.9264L34.082 78.0341L32.2632 81.5967ZM51.0714 88.3605L36.4059 104.452L39.3623 107.146L54.0278 91.0549L51.0714 88.3605ZM37.9867 107.797L59.73 106.679L59.5247 102.685L37.7814 103.802L37.9867 107.797ZM57.6737 104.254L53.0173 125.506L56.9246 126.362L61.581 105.11L57.6737 104.254ZM56.0602 127.611L74.3208 115.753L72.1424 112.399L53.8817 124.256L56.0602 127.611ZM71.3252 114.681L77.908 135.435L81.7208 134.225L75.138 113.471L71.3252 114.681ZM81.5957 135.739L91.488 116.362L87.9254 114.544L78.0331 133.921L81.5957 135.739Z" fill="#FF7051" mask="url(#path-2-inside-1_12_161)"/>
<path d="M99.481 61.5233C96.3634 63.6658 96.1306 64.3201 97.1777 67.9555C95.0351 64.8379 94.3808 64.6051 90.7454 65.6522C93.863 63.5096 94.0958 62.8553 93.0487 59.2199C95.1913 62.3375 95.8456 62.5704 99.481 61.5233Z" fill="#FF7051"/>
<path d="M76.8851 101.393C74.3771 103.119 74.1888 103.644 75.0315 106.57C73.3061 104.061 72.7805 103.873 69.8552 104.716C72.3632 102.99 72.5515 102.465 71.7088 99.5395C73.4342 102.048 73.9598 102.236 76.8851 101.393Z" fill="#FF7051"/>
<path d="M71.96 108.477C71.0104 109.131 70.939 109.33 71.2581 110.438C70.6049 109.488 70.4055 109.416 69.2979 109.736C70.2476 109.082 70.319 108.883 69.9998 107.775C70.6531 108.725 70.8524 108.796 71.96 108.477Z" fill="#FF7051"/>
<path d="M81.6687 106.689C80.1492 107.734 80.0352 108.053 80.5458 109.825C79.5006 108.306 79.1821 108.192 77.41 108.702C78.9295 107.657 79.0435 107.339 78.5329 105.566C79.5781 107.086 79.8966 107.2 81.6687 106.689Z" fill="#FF7051"/>
<path d="M90.5865 57.4518C88.9513 58.5754 88.828 58.9198 89.3783 60.8259C88.2548 59.1907 87.9103 59.0674 86.0042 59.6177C87.6394 58.4942 87.7627 58.1497 87.2124 56.2436C88.336 57.8788 88.6804 58.0021 90.5865 57.4518Z" fill="#FF7051"/>
<path d="M97.3563 56.3365C96.6337 56.833 96.579 56.9857 96.8222 57.828C96.3257 57.1054 96.173 57.0507 95.3306 57.2939C96.0533 56.7975 96.108 56.6447 95.8648 55.8024C96.3612 56.525 96.514 56.5797 97.3563 56.3365Z" fill="#FF7051"/>
<path d="M61.2096 99.1923L57.3608 87.5184L70.4837 83.1919L71.2222 85.4318L62.4547 88.3224L63.3603 91.0692L71.7318 88.3092L72.4703 90.5491L64.0988 93.3091L65.565 97.7563L61.2096 99.1923Z" fill="#FF7051"/>
<path d="M84.6701 91.6388C83.124 92.1485 81.7502 92.4202 80.5488 92.4537C79.3663 92.481 78.388 92.2719 77.6139 91.8261C76.8551 91.3633 76.3266 90.6796 76.0283 89.7749L73.5271 82.1885L78.024 80.7059L80.4174 87.9653C80.6042 88.5321 80.8476 88.9533 81.1476 89.2291C81.4664 89.4986 81.8489 89.6444 82.2952 89.6664C82.7567 89.6714 83.2986 89.5713 83.9208 89.3661C84.5618 89.1548 85.0646 88.9044 85.4291 88.6151C85.7936 88.3257 86.0144 87.981 86.0916 87.5809C86.1876 87.1747 86.1421 86.6881 85.9553 86.1213L83.5673 78.8783L88.0641 77.3957L90.5492 84.933C90.8402 85.8159 90.8184 86.6691 90.4836 87.4924C90.1489 88.3158 89.4922 89.0822 88.5136 89.7915C87.5539 90.4946 86.2727 91.1104 84.6701 91.6388Z" fill="#FF7051"/>
<path d="M94.3342 88.2713L90.4854 76.5974L96.566 74.5927L104.261 82.3339L104.346 82.3059C104.182 81.9369 104.026 81.5896 103.877 81.2641C103.724 80.9277 103.59 80.6155 103.474 80.3274C103.354 80.0285 103.244 79.7567 103.142 79.5122C103.041 79.2678 102.956 79.042 102.888 78.8349L101.006 73.1287L105.022 71.8047L108.871 83.4785L102.847 85.4646L95.0958 77.7421L94.9827 77.7794C95.1938 78.2294 95.3793 78.6335 95.5392 78.9917C95.6955 79.339 95.8316 79.6566 95.9475 79.9447C96.0786 80.2157 96.1837 80.4711 96.2628 80.7109C96.3571 80.9336 96.4366 81.143 96.5013 81.3392L98.3502 86.9472L94.3342 88.2713Z" fill="#FF7051"/>
</svg>

<svg width="168" height="168" fill="none" xmlns="http://www.w3.org/2000/svg"><path d="m141.04 57.04-18.134 19.9 23.981 12.241-25.674 8.145 14.668 22.59-26.301-5.764 1.38 26.888-19.9-18.134-12.241 23.981-8.145-25.674-22.588 14.667 5.763-26.301-26.889 1.381 18.136-19.9-23.981-12.242 25.672-8.144L32.12 48.086l26.3 5.763-1.38-26.889 19.9 18.136 12.242-23.981 8.144 25.672 22.59-14.668-5.764 26.301 26.888-1.38z" fill="#FAD645"/><mask id="a" fill="#fff"><path d="M106.593 131.799 89.915 116.6l-10.254 20.086-6.824-21.511-18.928 12.289 4.827-22.029-22.535 1.158 15.2-16.678-20.087-10.254 21.511-6.824-12.29-18.928 22.03 4.827L61.407 36.2l16.678 15.2 10.254-20.087 6.824 21.511 18.928-12.29-4.827 22.03 22.535-1.158L116.6 78.085l20.086 10.254-21.511 6.824 12.289 18.928-22.029-4.827 1.158 22.535zm-16.886-16.346 16.091 14.665-1.117-21.743 21.252 4.657-11.858-18.261 20.754-6.583-19.377-9.892 14.665-16.092-21.743 1.118 4.657-21.252L94.77 53.928l-6.583-20.754-9.892 19.377-16.092-14.666 1.118 21.743-21.252-4.656 11.858 18.26-20.754 6.583 19.377 9.893-14.666 16.091 21.743-1.117-4.656 21.252 18.26-11.858 6.583 20.754 9.893-19.377z"/></mask><path d="M106.593 131.799 89.915 116.6l-10.254 20.086-6.824-21.511-18.928 12.289 4.827-22.029-22.535 1.158 15.2-16.678-20.087-10.254 21.511-6.824-12.29-18.928 22.03 4.827L61.407 36.2l16.678 15.2 10.254-20.087 6.824 21.511 18.928-12.29-4.827 22.03 22.535-1.158L116.6 78.085l20.086 10.254-21.511 6.824 12.289 18.928-22.029-4.827 1.158 22.535zm-16.886-16.346 16.091 14.665-1.117-21.743 21.252 4.657-11.858-18.261 20.754-6.583-19.377-9.892 14.665-16.092-21.743 1.118 4.657-21.252L94.77 53.928l-6.583-20.754-9.892 19.377-16.092-14.666 1.118 21.743-21.252-4.656 11.858 18.26-20.754 6.583 19.377 9.893-14.666 16.091 21.743-1.117-4.656 21.252 18.26-11.858 6.583 20.754 9.893-19.377z" fill="#FF7051"/><path d="m89.915 116.6 1.347-1.478-1.936-1.766-1.192 2.334 1.781.91zm-10.254 20.086-1.906.604 1.473 4.643 2.214-4.338-1.78-.909zm-6.824-21.511 1.906-.605-.794-2.502-2.201 1.429 1.089 1.678zm-18.928 12.289-1.954-.428-1.042 4.758 4.085-2.652-1.09-1.678zm4.827-22.029 1.953.428.561-2.56-2.617.134.102 1.998zM36.2 106.593l-1.479-1.347-3.275 3.594 4.856-.25-.102-1.997zm15.2-16.678 1.477 1.348 1.766-1.937-2.334-1.192-.91 1.781zM31.313 79.661l-.605-1.906-4.642 1.473 4.338 2.215.91-1.782zm21.511-6.824.605 1.906 2.502-.794-1.43-2.201-1.677 1.089zm-12.29-18.928.429-1.954-4.758-1.042 2.652 4.085 1.678-1.09zm22.03 4.827-.428 1.953 2.56.561-.135-2.617-1.997.102zM61.407 36.2l1.347-1.479-3.594-3.275.25 4.856 1.997-.102zm16.678 15.2-1.348 1.477 1.937 1.766 1.192-2.334-1.781-.91zm10.254-20.087 1.906-.605-1.473-4.642-2.215 4.338 1.782.91zm6.824 21.511-1.906.605.794 2.502 2.201-1.43-1.089-1.677zm18.928-12.29 1.954.429 1.042-4.758-4.085 2.652 1.089 1.678zm-4.827 22.03-1.953-.428-.561 2.56 2.617-.134-.103-1.998zm22.535-1.158 1.479 1.347 3.275-3.594-4.856.25.102 1.997zM116.6 78.085l-1.478-1.348-1.766 1.937 2.334 1.192.91-1.781zm20.086 10.254.604 1.906 4.643-1.473-4.338-2.215-.909 1.782zm-21.511 6.824-.605-1.906-2.502.794 1.429 2.201 1.678-1.089zm12.289 18.928-.428 1.954 4.758 1.042-2.653-4.085-1.677 1.089zm-22.029-4.827.428-1.953-2.56-.561.134 2.617 1.998-.103zm.363 20.854-1.347 1.479 3.594 3.275-.249-4.856-1.998.102zm-1.117-21.743.428-1.953-2.56-.561.135 2.617 1.997-.103zm21.252 4.657-.428 1.953 4.758 1.043-2.653-4.086-1.677 1.09zm-11.858-18.261-.605-1.906-2.502.793 1.43 2.202 1.677-1.09zm20.754-6.583.605 1.906 4.643-1.472-4.339-2.215-.909 1.781zm-19.377-9.892-1.478-1.347-1.766 1.936 2.335 1.192.909-1.781zm14.665-16.092 1.479 1.347 3.275-3.594-4.856.25.102 1.997zm-21.743 1.118-1.953-.428-.561 2.56 2.617-.135-.103-1.997zm4.657-21.252 1.953.428 1.043-4.759-4.086 2.653 1.09 1.678zM94.77 53.928l-1.906.604.793 2.503 2.202-1.43-1.09-1.677zm-6.583-20.754 1.907-.605-1.473-4.643-2.215 4.338 1.781.91zM78.295 52.55l-1.347 1.478 1.937 1.765 1.191-2.334-1.781-.91zM62.203 37.885l1.347-1.478-3.594-3.276.25 4.857 1.997-.103zm1.118 21.743-.428 1.954 2.56.56-.135-2.616-1.997.102zm-21.252-4.656.428-1.954-4.759-1.042 2.653 4.085 1.678-1.09zm11.858 18.26.604 1.907 2.503-.794-1.43-2.202-1.677 1.09zm-20.754 6.583-.605-1.906-4.643 1.473 4.338 2.215.91-1.782zm19.377 9.893 1.478 1.347 1.765-1.937-2.334-1.192-.91 1.782zm-14.666 16.091-1.478-1.347-3.276 3.594 4.857-.249-.103-1.998zm21.743-1.117 1.954.428.56-2.56-2.616.135.102 1.997zm-4.656 21.252-1.954-.428-1.042 4.758 4.085-2.653-1.089-1.677zm18.26-11.858 1.907-.605-.794-2.502-2.202 1.43 1.09 1.677zm6.583 20.754-1.906.605 1.473 4.643 2.215-4.339-1.782-.909zm28.126-4.509-16.677-15.199-2.695 2.956 16.678 15.2 2.694-2.957zM88.134 115.69 77.88 135.776l3.562 1.819 10.255-20.086-3.563-1.819zm-6.567 20.391-6.824-21.511-3.813 1.209 6.825 21.511 3.813-1.209zm-9.82-22.584-18.927 12.29 2.178 3.355 18.928-12.29-2.178-3.355zm-15.885 14.395 4.827-22.029-3.907-.856-4.827 22.029 3.907.856zm2.77-24.455-22.534 1.159.205 3.994 22.535-1.158-.205-3.995zM37.68 107.94l15.2-16.677-2.957-2.695-15.2 16.678 2.957 2.694zm14.63-19.806L32.224 77.88l-1.82 3.563 20.087 10.254 1.819-3.563zm-20.39-6.567 21.511-6.824-1.21-3.813-21.51 6.825 1.209 3.813zm22.584-9.82L42.213 52.82l-3.355 2.178 12.29 18.928 3.355-2.178zM40.108 55.863l22.03 4.827.855-3.907-22.03-4.827-.855 3.907zm24.455 2.77-1.159-22.534-3.994.205 1.158 22.535 3.995-.205zM60.06 37.68l16.677 15.2 2.695-2.957-16.678-15.2-2.694 2.957zm19.806 14.63L90.12 32.224l-3.563-1.82-10.254 20.087 3.563 1.819zm6.566-20.39 6.825 21.511 3.813-1.21-6.825-21.51-3.813 1.21zm9.82 22.584 18.928-12.29-2.178-3.355-18.928 12.29 2.178 3.355zm15.885-14.395-4.826 22.03 3.907.855 4.827-22.03-3.908-.855zm-2.77 24.455 22.535-1.159-.205-3.994-22.535 1.158.205 3.995zm20.954-4.503-15.199 16.677 2.956 2.695 15.2-16.678-2.957-2.694zM115.69 79.866l20.086 10.254 1.819-3.563-20.086-10.254-1.819 3.563zm20.391 6.566-21.511 6.825 1.209 3.813 21.511-6.825-1.209-3.813zm-22.584 9.82 12.29 18.928 3.354-2.178-12.289-18.928-3.355 2.178zm14.395 15.885-22.029-4.826-.856 3.907 22.029 4.827.856-3.908zm-24.455-2.77 1.158 22.535 3.995-.205-1.158-22.535-3.995.205zm-15.078 7.564 16.092 14.666 2.694-2.957-16.091-14.665-2.695 2.956zm19.437 13.085-1.118-21.743-3.994.205 1.117 21.743 3.995-.205zm-3.543-19.687 21.252 4.656.856-3.907-21.252-4.656-.856 3.907zm23.357 1.613-11.858-18.26-3.354 2.178 11.857 18.261 3.355-2.179zm-12.93-15.265 20.754-6.583-1.21-3.812-20.754 6.583 1.21 3.812zm21.058-10.27-19.377-9.892-1.818 3.562 19.377 9.892 1.818-3.562zm-18.808-6.764 14.666-16.092-2.957-2.694-14.665 16.092 2.956 2.694zm13.085-19.436-21.743 1.117.205 3.995 21.743-1.117-.205-3.995zm-19.687 3.543 4.656-21.252-3.907-.856-4.656 21.252 3.907.856zm1.613-23.358L93.681 52.25l2.178 3.355 18.261-11.858-2.179-3.355zm-15.265 12.93L90.094 32.57l-3.813 1.21 6.582 20.753 3.813-1.21zm-10.27-21.058-9.893 19.377 3.563 1.819 9.892-19.377-3.562-1.819zm-6.764 18.808L63.55 36.407l-2.694 2.956L76.948 54.03l2.694-2.957zM60.206 37.988l1.117 21.743 3.995-.205-1.117-21.744-3.995.206zm3.543 19.687-21.252-4.657-.856 3.908 21.252 4.656.856-3.907zM40.39 56.06l11.858 18.26 3.355-2.178-11.858-18.26-3.355 2.178zm12.93 15.265L32.569 77.91l1.21 3.813 20.753-6.583-1.21-3.813zm-21.058 10.27L51.64 91.49l1.819-3.563-19.377-9.892-1.819 3.563zm18.808 6.764-14.665 16.092 2.956 2.694 14.666-16.091-2.957-2.695zm-13.084 19.437 21.743-1.118-.205-3.994-21.744 1.117.206 3.995zm19.687-3.543-4.657 21.252 3.908.856 4.656-21.252-3.907-.856zm-1.614 23.357 18.26-11.858-2.178-3.354-18.26 11.857 2.178 3.355zm15.265-12.93 6.583 20.754 3.813-1.21-6.583-20.754-3.813 1.21zm10.27 21.058 9.893-19.377-3.563-1.818-9.892 19.377 3.563 1.818z" fill="#FF7051" mask="url(#a)"/><path d="M99.481 61.523c-3.118 2.143-3.35 2.797-2.303 6.432-2.143-3.117-2.797-3.35-6.433-2.303 3.118-2.142 3.35-2.797 2.304-6.432 2.142 3.117 2.797 3.35 6.432 2.303zM76.885 101.393c-2.508 1.726-2.696 2.251-1.854 5.177-1.725-2.509-2.25-2.697-5.176-1.854 2.508-1.726 2.697-2.251 1.854-5.176 1.725 2.508 2.25 2.696 5.176 1.853zM71.96 108.477c-.95.654-1.021.853-.702 1.961-.653-.95-.852-1.022-1.96-.702.95-.654 1.021-.853.702-1.961.653.95.852 1.021 1.96.702zM81.669 106.689c-1.52 1.045-1.634 1.364-1.123 3.136-1.045-1.519-1.364-1.633-3.136-1.123 1.52-1.045 1.633-1.363 1.123-3.136 1.045 1.52 1.364 1.634 3.136 1.123zM90.587 57.452c-1.636 1.123-1.759 1.468-1.209 3.374-1.123-1.635-1.468-1.759-3.374-1.208 1.635-1.124 1.759-1.468 1.208-3.374 1.124 1.635 1.468 1.758 3.374 1.208zM97.356 56.337c-.722.496-.777.649-.534 1.491-.496-.723-.649-.777-1.491-.534.722-.496.777-.65.534-1.492.496.723.649.778 1.491.535zM61.21 99.192l-3.85-11.674 13.124-4.326.738 2.24-8.767 2.89.905 2.747 8.372-2.76.738 2.24-8.371 2.76 1.466 4.447-4.355 1.436zM84.67 91.639c-1.546.51-2.92.781-4.121.815-1.183.027-2.161-.182-2.935-.628-.759-.463-1.287-1.146-1.586-2.051l-2.5-7.587 4.496-1.482 2.393 7.26c.187.566.43.987.73 1.263.32.27.702.415 1.148.437.462.005 1.004-.095 1.626-.3.64-.211 1.144-.462 1.508-.75.365-.29.585-.635.663-1.035.096-.406.05-.893-.137-1.46l-2.388-7.243 4.497-1.482 2.485 7.537c.291.883.27 1.736-.065 2.56-.335.823-.992 1.59-1.97 2.299-.96.703-2.241 1.318-3.844 1.847zM94.334 88.271l-3.849-11.674 6.081-2.004 7.695 7.74.085-.027c-.164-.37-.32-.716-.469-1.042a23.222 23.222 0 0 1-.403-.937c-.12-.299-.23-.57-.332-.815a9.779 9.779 0 0 1-.254-.677l-1.882-5.706 4.016-1.324 3.849 11.673-6.024 1.987-7.751-7.723-.113.037c.21.45.396.855.556 1.213.156.347.293.665.409.953.13.27.236.526.315.766.094.223.174.432.238.628l1.85 5.608-4.017 1.324z" fill="#FF7051"/></svg>
